assets/logos/white_logo/taito.svg

<?xml version="1.0" encoding="UTF-8"?>
<svg width="432px" height="174px" viewBox="0 0 432 174" version="1.1" xmlns="http://www.w3.org/2000/svg" xmlns:xlink="http://www.w3.org/1999/xlink">
    <title>syslogo</title>
    <g id="Page-1" stroke="none" stroke-width="1" fill="none" fill-rule="evenodd">
        <g id="syslogo" fill="#FFFFFF" fill-rule="nonzero">
            <g id="Taito_logo">
                <polygon id="path3027" points="92.34375 42.48075 0 42.48075 0 60.490125 35.090625 60.490125 35.090625 134.8245 57.253125 134.8245 57.253125 60.490125 92.34375 60.490125 92.34375 42.48075"></polygon>
                <polygon id="path3031" points="305.112638 42.48075 212.7642 42.48075 212.7642 60.490125 247.854825 60.490125 247.854825 134.8245 270.022012 134.8245 270.022012 60.490125 305.112637 60.490125 305.112637 42.48075"></polygon>
                <polygon id="path3033" points="183.594825 134.826375 205.757325 134.826375 205.757325 42.482625 183.594825 42.482625"></polygon>
                <path d="M122.355,134.82525 L122.355,134.82525 L182.387813,134.82525 L142.4175,61.28775 C127.544063,81.809625 119.78625,107.614313 122.355,134.82525" id="path3037"></path>
                <path d="M66.9520125,134.82525 L98.3442,134.82525 C101.73795,102.523688 116.51295,74.234625 138.22545,53.5768125 L124.6692,28.6299375 L66.9520125,134.82525 Z" id="path3041"></path>
                <path d="M194.677012,0 C185.4942,0 178.05045,7.44375 178.05045,16.621875 C178.05045,25.8 185.4942,33.24375 194.677012,33.24375 C203.855137,33.24375 211.298887,25.8 211.298887,16.621875 C211.298887,7.44375 203.855137,0 194.677012,0" id="path3045"></path>
                <path d="M170.049375,34.717125 L168.582187,32.0311875 C157.4775,37.7265 147.254062,44.9874375 138.225937,53.5749375 L142.416562,61.2905625 C149.944687,50.9124375 159.29625,41.8843125 170.049375,34.717125" id="path3049"></path>
                <path d="M360.515625,120.447 C342.867188,120.447 328.575,107.739188 328.575,88.5204375 C328.575,69.3016875 342.867187,56.5985625 360.515625,56.5985625 C378.164062,56.5985625 392.45625,69.3016875 392.45625,88.5204375 C392.45625,107.739188 378.164063,120.447 360.515625,120.447 M360.515625,39.522 C328.7625,39.522 305.109375,59.2329375 305.109375,88.5204375 C305.109375,117.807937 328.7625,137.518875 360.515625,137.518875 C392.273438,137.518875 415.921875,117.807937 415.921875,88.5204375 C415.921875,59.2329375 392.273438,39.522 360.515625,39.522" id="path3053"></path>
                <path d="M417.153712,23.0355375 C410.436525,23.0392875 404.98965,28.4871 404.98965,35.2042875 C404.98965,41.9167875 410.436525,47.358975 417.1584,47.358975 C423.875588,47.355225 429.322463,41.9121 429.317775,35.1996 C429.317775,28.4824125 423.8709,23.0355375 417.153712,23.0355375 L417.153712,21.3011608 C424.831838,21.2974125 431.052152,27.5167875 431.052152,35.1996 C431.0559,42.86835 424.836525,49.0980375 417.1584,49.0980375 C409.480275,49.0980375 403.259962,42.8730375 403.255275,35.2042875 C403.255275,27.5261625 409.475587,21.3011608 417.153712,21.3011608 L417.153712,23.0355375 L417.153712,23.0355375 Z" id="path3019-1"></path>
                <path d="M414.045412,34.4977875 L414.041663,30.564975 C414.041663,30.564975 418.799475,30.561225 419.816662,30.561225 C421.030725,30.561225 421.7151,31.6346625 421.710412,32.5534125 C421.714162,33.523725 420.83385,34.4940375 419.722912,34.4940375 C418.607287,34.4940375 414.04635,34.4977875 414.04635,34.4977875 L414.04635,36.8227875 L417.444788,36.8190375 L421.297913,42.2331 L424.185413,42.2556 L420.304163,36.677475 C422.3901,36.677475 424.124475,34.6384125 424.124475,32.4071625 C424.124475,30.1759125 422.193225,28.28685 420.444787,28.28685 L411.472912,28.28685 L411.472912,42.4056 L414.04635,42.4056 L414.04635,36.8227875 L414.04635,34.4977875 L414.045412,34.4977875 Z" id="path3023-7"></path>
            </g>
            <path d="M9.816,173.304 C11.128,173.304 12.404,173.024 13.644,172.464 C14.884,171.904 15.904,171.152 16.704,170.208 L16.704,170.208 L14.424,167.952 C13.832,168.64 13.152,169.168 12.384,169.536 C11.616,169.904 10.792,170.088 9.912,170.088 C9.128,170.088 8.404,169.948 7.74,169.668 C7.076,169.388 6.5,169.008 6.012,168.528 C5.524,168.048 5.14,167.476 4.86,166.812 C4.58,166.148 4.44,165.432 4.44,164.664 C4.44,163.88 4.576,163.156 4.848,162.492 C5.12,161.828 5.496,161.252 5.976,160.764 C6.456,160.276 7.028,159.892 7.692,159.612 C8.356,159.332 9.064,159.192 9.816,159.192 C10.712,159.192 11.56,159.388 12.36,159.78 C13.16,160.172 13.856,160.736 14.448,161.472 L14.448,161.472 L16.8,159.144 C16.016,158.184 14.992,157.42 13.728,156.852 C12.464,156.284 11.16,156 9.816,156 C8.568,156 7.396,156.224 6.3,156.672 C5.204,157.12 4.256,157.728 3.456,158.496 C2.656,159.264 2.024,160.18 1.56,161.244 C1.096,162.308 0.864,163.448 0.864,164.664 C0.864,165.88 1.092,167.016 1.548,168.072 C2.004,169.128 2.632,170.04 3.432,170.808 C4.232,171.576 5.18,172.184 6.276,172.632 C7.372,173.08 8.552,173.304 9.816,173.304 Z M55.296,173.328 C56.544,173.328 57.712,173.104 58.8,172.656 C59.888,172.208 60.828,171.596 61.62,170.82 C62.412,170.044 63.04,169.124 63.504,168.06 C63.968,166.996 64.2,165.864 64.2,164.664 C64.2,163.464 63.968,162.332 63.504,161.268 C63.04,160.204 62.412,159.284 61.62,158.508 C60.828,157.732 59.888,157.12 58.8,156.672 C57.712,156.224 56.544,156 55.296,156 C54.064,156 52.904,156.224 51.816,156.672 C50.728,157.12 49.788,157.732 48.996,158.508 C48.204,159.284 47.576,160.204 47.112,161.268 C46.648,162.332 46.416,163.464 46.416,164.664 C46.416,165.864 46.648,166.996 47.112,168.06 C47.576,169.124 48.204,170.044 48.996,170.82 C49.788,171.596 50.728,172.208 51.816,172.656 C52.904,173.104 54.064,173.328 55.296,173.328 Z M55.296,170.136 C54.544,170.136 53.844,169.996 53.196,169.716 C52.548,169.436 51.988,169.052 51.516,168.564 C51.044,168.076 50.672,167.496 50.4,166.824 C50.128,166.152 49.992,165.432 49.992,164.664 C49.992,163.88 50.128,163.156 50.4,162.492 C50.672,161.828 51.044,161.252 51.516,160.764 C51.988,160.276 52.548,159.892 53.196,159.612 C53.844,159.332 54.544,159.192 55.296,159.192 C56.048,159.192 56.752,159.332 57.408,159.612 C58.064,159.892 58.628,160.276 59.1,160.764 C59.572,161.252 59.944,161.828 60.216,162.492 C60.488,163.156 60.624,163.88 60.624,164.664 C60.624,165.432 60.488,166.152 60.216,166.824 C59.944,167.496 59.572,168.076 59.1,168.564 C58.628,169.052 58.064,169.436 57.408,169.716 C56.752,169.996 56.048,170.136 55.296,170.136 Z M108.048,173.064 L108.048,169.992 L98.856,169.992 L98.856,156.264 L95.376,156.264 L95.376,173.064 L108.048,173.064 Z M151.92,173.064 L151.92,169.992 L142.728,169.992 L142.728,156.264 L139.248,156.264 L139.248,173.064 L151.92,173.064 Z M196.128,173.064 L196.128,170.04 L186.6,170.04 L186.6,166.056 L192.816,166.056 L192.816,163.128 L186.6,163.128 L186.6,159.288 L196.032,159.288 L196.032,156.264 L183.12,156.264 L183.12,173.064 L196.128,173.064 Z M234.72,173.304 C236.032,173.304 237.308,173.024 238.548,172.464 C239.788,171.904 240.808,171.152 241.608,170.208 L241.608,170.208 L239.328,167.952 C238.736,168.64 238.056,169.168 237.288,169.536 C236.52,169.904 235.696,170.088 234.816,170.088 C234.032,170.088 233.308,169.948 232.644,169.668 C231.98,169.388 231.404,169.008 230.916,168.528 C230.428,168.048 230.044,167.476 229.764,166.812 C229.484,166.148 229.344,165.432 229.344,164.664 C229.344,163.88 229.48,163.156 229.752,162.492 C230.024,161.828 230.4,161.252 230.88,160.764 C231.36,160.276 231.932,159.892 232.596,159.612 C233.26,159.332 233.968,159.192 234.72,159.192 C235.616,159.192 236.464,159.388 237.264,159.78 C238.064,160.172 238.76,160.736 239.352,161.472 L239.352,161.472 L241.704,159.144 C240.92,158.184 239.896,157.42 238.632,156.852 C237.368,156.284 236.064,156 234.72,156 C233.472,156 232.3,156.224 231.204,156.672 C230.108,157.12 229.16,157.728 228.36,158.496 C227.56,159.264 226.928,160.18 226.464,161.244 C226,162.308 225.768,163.448 225.768,164.664 C225.768,165.88 225.996,167.016 226.452,168.072 C226.908,169.128 227.536,170.04 228.336,170.808 C229.136,171.576 230.084,172.184 231.18,172.632 C232.276,173.08 233.456,173.304 234.72,173.304 Z M280.752,173.064 L280.752,159.336 L286.392,159.336 L286.392,156.264 L271.608,156.264 L271.608,159.336 L277.272,159.336 L277.272,173.064 L280.752,173.064 Z M320.616,173.064 L320.616,156.264 L317.136,156.264 L317.136,173.064 L320.616,173.064 Z M360.696,173.328 C361.944,173.328 363.112,173.104 364.2,172.656 C365.288,172.208 366.228,171.596 367.02,170.82 C367.812,170.044 368.44,169.124 368.904,168.06 C369.368,166.996 369.6,165.864 369.6,164.664 C369.6,163.464 369.368,162.332 368.904,161.268 C368.44,160.204 367.812,159.284 367.02,158.508 C366.228,157.732 365.288,157.12 364.2,156.672 C363.112,156.224 361.944,156 360.696,156 C359.464,156 358.304,156.224 357.216,156.672 C356.128,157.12 355.188,157.732 354.396,158.508 C353.604,159.284 352.976,160.204 352.512,161.268 C352.048,162.332 351.816,163.464 351.816,164.664 C351.816,165.864 352.048,166.996 352.512,168.06 C352.976,169.124 353.604,170.044 354.396,170.82 C355.188,171.596 356.128,172.208 357.216,172.656 C358.304,173.104 359.464,173.328 360.696,173.328 Z M360.696,170.136 C359.944,170.136 359.244,169.996 358.596,169.716 C357.948,169.436 357.388,169.052 356.916,168.564 C356.444,168.076 356.072,167.496 355.8,166.824 C355.528,166.152 355.392,165.432 355.392,164.664 C355.392,163.88 355.528,163.156 355.8,162.492 C356.072,161.828 356.444,161.252 356.916,160.764 C357.388,160.276 357.948,159.892 358.596,159.612 C359.244,159.332 359.944,159.192 360.696,159.192 C361.448,159.192 362.152,159.332 362.808,159.612 C363.464,159.892 364.028,160.276 364.5,160.764 C364.972,161.252 365.344,161.828 365.616,162.492 C365.888,163.156 366.024,163.88 366.024,164.664 C366.024,165.432 365.888,166.152 365.616,166.824 C365.344,167.496 364.972,168.076 364.5,168.564 C364.028,169.052 363.464,169.436 362.808,169.716 C362.152,169.996 361.448,170.136 360.696,170.136 Z M404.064,173.064 L404.064,161.832 L412.632,173.064 L415.704,173.064 L415.704,156.264 L412.44,156.264 L412.44,167.136 L404.088,156.264 L400.776,156.264 L400.776,173.064 L404.064,173.064 Z" id="COLLECTION"></path>
        </g>
    </g>
</svg>

<?xml version="1.0" encoding="UTF-8" standalone="no"?>
<svg
   xmlns:dc="http://purl.org/dc/elements/1.1/"
   xmlns:cc="http://creativecommons.org/ns#"
   xmlns:rdf="http://www.w3.org/1999/02/22-rdf-syntax-ns#"
   xmlns:svg="http://www.w3.org/2000/svg"
   xmlns="http://www.w3.org/2000/svg"
   xmlns:sodipodi="http://sodipodi.sourceforge.net/DTD/sodipodi-0.dtd"
   xmlns:inkscape="http://www.inkscape.org/namespaces/inkscape"
   width="500"
   height="200"
   viewBox="0 0 500 200"
   version="1.1"
   id="svg127"
   sodipodi:docname="taito.svg"
   inkscape:version="0.92.5 (2060ec1f9f, 2020-04-08)">
  <metadata
     id="metadata133">
    <rdf:RDF>
      <cc:Work
         rdf:about="">
        <dc:format>image/svg+xml</dc:format>
        <dc:type
           rdf:resource="http://purl.org/dc/dcmitype/StillImage" />
        <dc:title>syslogo</dc:title>
      </cc:Work>
    </rdf:RDF>
  </metadata>
  <defs
     id="defs131" />
  <sodipodi:namedview
     pagecolor="#ffffff"
     bordercolor="#666666"
     borderopacity="1"
     objecttolerance="10"
     gridtolerance="10"
     guidetolerance="10"
     inkscape:pageopacity="0"
     inkscape:pageshadow="2"
     inkscape:window-width="1366"
     inkscape:window-height="740"
     id="namedview129"
     showgrid="false"
     inkscape:pagecheckerboard="true"
     inkscape:zoom="1.3519965"
     inkscape:cx="216"
     inkscape:cy="87"
     inkscape:window-x="0"
     inkscape:window-y="0"
     inkscape:window-maximized="1"
     inkscape:current-layer="svg127" />
  <title
     id="title111">syslogo</title>
  <g
     id="Page-1"
     style="fill:none;fill-rule:evenodd;stroke:none;stroke-width:1"
     transform="translate(31.065169,6.0295345)">
    <g
       id="syslogo"
       style="fill:#ffffff;fill-rule:nonzero">
      <g
         id="Taito_logo">
        <polygon
           id="path3027"
           points="57.253125,134.8245 57.253125,60.490125 92.34375,60.490125 92.34375,42.48075 0,42.48075 0,60.490125 35.090625,60.490125 35.090625,134.8245 " />
        <polygon
           id="path3031"
           points="270.02201,134.8245 270.02201,60.490125 305.11264,60.490125 305.11264,42.48075 305.11264,42.48075 212.7642,42.48075 212.7642,60.490125 247.85483,60.490125 247.85483,134.8245 " />
        <polygon
           id="path3033"
           points="205.75733,134.82638 205.75733,42.482625 183.59482,42.482625 183.59482,134.82638 " />
        <path
           d="m 122.355,134.82525 v 0 h 60.03281 L 142.4175,61.28775 c -14.87344,20.521875 -22.63125,46.32656 -20.0625,73.5375"
           id="path3037"
           inkscape:connector-curvature="0" />
        <path
           d="M 66.952012,134.82525 H 98.3442 c 3.39375,-32.30156 18.16875,-60.590625 39.88125,-81.248437 L 124.6692,28.629937 Z"
           id="path3041"
           inkscape:connector-curvature="0" />
        <path
           d="m 194.67701,0 c -9.18281,0 -16.62656,7.44375 -16.62656,16.621875 0,9.178125 7.44375,16.621875 16.62656,16.621875 9.17813,0 16.62188,-7.44375 16.62188,-16.621875 C 211.29889,7.44375 203.85514,0 194.67701,0"
           id="path3045"
           inkscape:connector-curvature="0" />
        <path
           d="m 170.04937,34.717125 -1.46718,-2.685937 C 157.4775,37.7265 147.25406,44.987437 138.22594,53.574937 l 4.19062,7.715625 c 7.52813,-10.378124 16.87969,-19.40625 27.63281,-26.573437"
           id="path3049"
           inkscape:connector-curvature="0" />
        <path
           d="m 360.51562,120.447 c -17.64843,0 -31.94062,-12.70781 -31.94062,-31.926563 0,-19.21875 14.29219,-31.921875 31.94062,-31.921875 17.64844,0 31.94063,12.703125 31.94063,31.921875 0,19.218753 -14.29219,31.926563 -31.94063,31.926563 m 0,-80.925 c -31.75312,0 -55.40625,19.710937 -55.40625,48.998437 0,29.287503 23.65313,48.998433 55.40625,48.998433 31.75782,0 55.40625,-19.71093 55.40625,-48.998433 0,-29.2875 -23.64843,-48.998437 -55.40625,-48.998437"
           id="path3053"
           inkscape:connector-curvature="0" />
        <path
           d="m 417.15371,23.035537 c -6.71718,0.0038 -12.16406,5.451563 -12.16406,12.16875 0,6.7125 5.44688,12.154688 12.16875,12.154688 6.71719,-0.0038 12.16406,-5.446875 12.15937,-12.159375 0,-6.717188 -5.44687,-12.164063 -12.16406,-12.164063 v -1.734376 c 7.67813,-0.0037 13.89844,6.215626 13.89844,13.898439 0.004,7.66875 -6.21563,13.898437 -13.89375,13.898437 -7.67813,0 -13.89844,-6.224999 -13.90313,-13.89375 0,-7.678124 6.22032,-13.903126 13.89844,-13.903126 z"
           id="path3019-1"
           inkscape:connector-curvature="0" />
        <path
           d="m 414.04541,34.497787 -0.004,-3.932812 c 0,0 4.75781,-0.0038 5.775,-0.0038 1.21407,0 1.89844,1.073437 1.89375,1.992187 0.004,0.970313 -0.87656,1.940625 -1.9875,1.940625 -1.11562,0 -5.67656,0.0038 -5.67656,0.0038 v 2.325 l 3.39844,-0.0037 3.85312,5.414063 2.8875,0.0225 -3.88125,-5.578125 c 2.08594,0 3.82032,-2.039063 3.82032,-4.270313 0,-2.23125 -1.93126,-4.120312 -3.67969,-4.120312 h -8.97188 v 14.1187 h 2.57344 v -5.582813 -2.325 z"
           id="path3023-7"
           inkscape:connector-curvature="0" />
      </g>
      <path
         d="m 9.816,173.304 c 1.312,0 2.588,-0.28 3.828,-0.84 1.24,-0.56 2.26,-1.312 3.06,-2.256 v 0 l -2.28,-2.256 c -0.592,0.688 -1.272,1.216 -2.04,1.584 -0.768,0.368 -1.592,0.552 -2.472,0.552 -0.784,0 -1.508,-0.14 -2.172,-0.42 -0.664,-0.28 -1.24,-0.66 -1.728,-1.14 -0.488,-0.48 -0.872,-1.052 -1.152,-1.716 -0.28,-0.664 -0.42,-1.38 -0.42,-2.148 0,-0.784 0.136,-1.508 0.408,-2.172 0.272,-0.664 0.648,-1.24 1.128,-1.728 0.48,-0.488 1.052,-0.872 1.716,-1.152 0.664,-0.28 1.372,-0.42 2.124,-0.42 0.896,0 1.744,0.196 2.544,0.588 0.8,0.392 1.496,0.956 2.088,1.692 v 0 l 2.352,-2.328 c -0.784,-0.96 -1.808,-1.724 -3.072,-2.292 C 12.464,156.284 11.16,156 9.816,156 c -1.248,0 -2.42,0.224 -3.516,0.672 -1.096,0.448 -2.044,1.056 -2.844,1.824 -0.8,0.768 -1.432,1.684 -1.896,2.748 -0.464,1.064 -0.696,2.204 -0.696,3.42 0,1.216 0.228,2.352 0.684,3.408 0.456,1.056 1.084,1.968 1.884,2.736 0.8,0.768 1.748,1.376 2.844,1.824 1.096,0.448 2.276,0.672 3.54,0.672 z m 45.48,0.024 c 1.248,0 2.416,-0.224 3.504,-0.672 1.088,-0.448 2.028,-1.06 2.82,-1.836 0.792,-0.776 1.42,-1.696 1.884,-2.76 0.464,-1.064 0.696,-2.196 0.696,-3.396 0,-1.2 -0.232,-2.332 -0.696,-3.396 -0.464,-1.064 -1.092,-1.984 -1.884,-2.76 -0.792,-0.776 -1.732,-1.388 -2.82,-1.836 C 57.712,156.224 56.544,156 55.296,156 c -1.232,0 -2.392,0.224 -3.48,0.672 -1.088,0.448 -2.028,1.06 -2.82,1.836 -0.792,0.776 -1.42,1.696 -1.884,2.76 -0.464,1.064 -0.696,2.196 -0.696,3.396 0,1.2 0.232,2.332 0.696,3.396 0.464,1.064 1.092,1.984 1.884,2.76 0.792,0.776 1.732,1.388 2.82,1.836 1.088,0.448 2.248,0.672 3.48,0.672 z m 0,-3.192 c -0.752,0 -1.452,-0.14 -2.1,-0.42 -0.648,-0.28 -1.208,-0.664 -1.68,-1.152 -0.472,-0.488 -0.844,-1.068 -1.116,-1.74 -0.272,-0.672 -0.408,-1.392 -0.408,-2.16 0,-0.784 0.136,-1.508 0.408,-2.172 0.272,-0.664 0.644,-1.24 1.116,-1.728 0.472,-0.488 1.032,-0.872 1.68,-1.152 0.648,-0.28 1.348,-0.42 2.1,-0.42 0.752,0 1.456,0.14 2.112,0.42 0.656,0.28 1.22,0.664 1.692,1.152 0.472,0.488 0.844,1.064 1.116,1.728 0.272,0.664 0.408,1.388 0.408,2.172 0,0.768 -0.136,1.488 -0.408,2.16 -0.272,0.672 -0.644,1.252 -1.116,1.74 -0.472,0.488 -1.036,0.872 -1.692,1.152 -0.656,0.28 -1.36,0.42 -2.112,0.42 z m 52.752,2.928 v -3.072 h -9.192 v -13.728 h -3.48 v 16.8 z m 43.872,0 v -3.072 h -9.192 v -13.728 h -3.48 v 16.8 z m 44.208,0 V 170.04 H 186.6 v -3.984 h 6.216 v -2.928 H 186.6 v -3.84 h 9.432 v -3.024 H 183.12 v 16.8 z m 38.592,0.24 c 1.312,0 2.588,-0.28 3.828,-0.84 1.24,-0.56 2.26,-1.312 3.06,-2.256 v 0 l -2.28,-2.256 c -0.592,0.688 -1.272,1.216 -2.04,1.584 -0.768,0.368 -1.592,0.552 -2.472,0.552 -0.784,0 -1.508,-0.14 -2.172,-0.42 -0.664,-0.28 -1.24,-0.66 -1.728,-1.14 -0.488,-0.48 -0.872,-1.052 -1.152,-1.716 -0.28,-0.664 -0.42,-1.38 -0.42,-2.148 0,-0.784 0.136,-1.508 0.408,-2.172 0.272,-0.664 0.648,-1.24 1.128,-1.728 0.48,-0.488 1.052,-0.872 1.716,-1.152 0.664,-0.28 1.372,-0.42 2.124,-0.42 0.896,0 1.744,0.196 2.544,0.588 0.8,0.392 1.496,0.956 2.088,1.692 v 0 l 2.352,-2.328 c -0.784,-0.96 -1.808,-1.724 -3.072,-2.292 -1.264,-0.568 -2.568,-0.852 -3.912,-0.852 -1.248,0 -2.42,0.224 -3.516,0.672 -1.096,0.448 -2.044,1.056 -2.844,1.824 -0.8,0.768 -1.432,1.684 -1.896,2.748 -0.464,1.064 -0.696,2.204 -0.696,3.42 0,1.216 0.228,2.352 0.684,3.408 0.456,1.056 1.084,1.968 1.884,2.736 0.8,0.768 1.748,1.376 2.844,1.824 1.096,0.448 2.276,0.672 3.54,0.672 z m 46.032,-0.24 v -13.728 h 5.64 v -3.072 h -14.784 v 3.072 h 5.664 v 13.728 z m 39.864,0 v -16.8 h -3.48 v 16.8 z m 40.08,0.264 c 1.248,0 2.416,-0.224 3.504,-0.672 1.088,-0.448 2.028,-1.06 2.82,-1.836 0.792,-0.776 1.42,-1.696 1.884,-2.76 0.464,-1.064 0.696,-2.196 0.696,-3.396 0,-1.2 -0.232,-2.332 -0.696,-3.396 -0.464,-1.064 -1.092,-1.984 -1.884,-2.76 -0.792,-0.776 -1.732,-1.388 -2.82,-1.836 -1.088,-0.448 -2.256,-0.672 -3.504,-0.672 -1.232,0 -2.392,0.224 -3.48,0.672 -1.088,0.448 -2.028,1.06 -2.82,1.836 -0.792,0.776 -1.42,1.696 -1.884,2.76 -0.464,1.064 -0.696,2.196 -0.696,3.396 0,1.2 0.232,2.332 0.696,3.396 0.464,1.064 1.092,1.984 1.884,2.76 0.792,0.776 1.732,1.388 2.82,1.836 1.088,0.448 2.248,0.672 3.48,0.672 z m 0,-3.192 c -0.752,0 -1.452,-0.14 -2.1,-0.42 -0.648,-0.28 -1.208,-0.664 -1.68,-1.152 -0.472,-0.488 -0.844,-1.068 -1.116,-1.74 -0.272,-0.672 -0.408,-1.392 -0.408,-2.16 0,-0.784 0.136,-1.508 0.408,-2.172 0.272,-0.664 0.644,-1.24 1.116,-1.728 0.472,-0.488 1.032,-0.872 1.68,-1.152 0.648,-0.28 1.348,-0.42 2.1,-0.42 0.752,0 1.456,0.14 2.112,0.42 0.656,0.28 1.22,0.664 1.692,1.152 0.472,0.488 0.844,1.064 1.116,1.728 0.272,0.664 0.408,1.388 0.408,2.172 0,0.768 -0.136,1.488 -0.408,2.16 -0.272,0.672 -0.644,1.252 -1.116,1.74 -0.472,0.488 -1.036,0.872 -1.692,1.152 -0.656,0.28 -1.36,0.42 -2.112,0.42 z m 43.368,2.928 v -11.232 l 8.568,11.232 h 3.072 v -16.8 h -3.264 v 10.872 l -8.352,-10.872 h -3.312 v 16.8 z"
         id="COLLECTION"
         inkscape:connector-curvature="0" />
    </g>
  </g>
</svg>
